X:1
T:Fellowship, CM
T:Alfred George Wathall, 1905
T:Fellowship, CM
T:Public Domain
C:Alfred George Wathall, 1905
Z:Public Domain
%%score ( 1 2 ) ( 3 4 )
L:1/8
M:4/4
K:D
V:1 treble 
V:2 treble 
V:3 bass 
V:4 bass 
V:1
 [DF]2 | [DF]3 [DG] [DF]2 [DF]2 | [EF]3 [EG] [EF]2 [EF]2 | [DB]2 [B,F]2 [E^G]3 [DG] | %4
 (C2 D2 E2) A2 | [Ec]3 [EB] [FA]2 F2 | [DF]3 [CE] [B,D]2 [B,D]2 | [DB]3 [DB] [DA]2 [CE]2 | [DF]6 |] %9
V:2
 x2 | x8 | x8 | x8 | A6 A2 | x6 F2 | x8 | x8 | x6 |] %9
V:3
 [D,A,]2 | [D,A,]3 [D,B,] [D,A,]2 [D,A,]2 | [C,^A,]3 [C,B,] [C,A,]2 [C,A,]2 | %3
 [B,,B,]2 [F,D]2 [E,C]3 [E,B,] | (A,2 B,2 [A,C]2) A,2 | A,2 B,[G,C] [F,D]2 [D,A,]2 | %6
 [^A,,F,]3 [A,,F,] [B,,F,]2 [=A,,F,]2 | [G,,E,]3 [G,,E,] [A,,E,]2 [A,,A,]2 | [D,A,]6 |] %9
V:4
 x2 | x8 | x8 | x8 | A,,4 A,2 x2 | G,3 x5 | x8 | x8 | x6 |] %9

